X:1
T:Soldier's Joy - D
M:4/4
L:1/8
K:D
|:"D"AF DF AF DF|A2 d2 d2 cB|AF DF AF DF|"A7"G2 E2 E2 FG
|:"D"f2 fg a2 f2|"A"e2 ef g2 e2|"D"f2 fg a2 f2|"A"ed cB A4

